assets/icons/24px/stroke/tray-and-arrow-left-24px.svg

<svg width="24" height="24" viewBox="0 0 24 24" fill="none" xmlns="http://www.w3.org/2000/svg">
<g clip-path="url(#clip0_878_23389)">
<g clip-path="url(#clip1_878_23389)">
<path fill-rule="evenodd" clip-rule="evenodd" d="M8.3863 17.7285C7.98394 18.1069 7.35108 18.0874 6.97276 17.685L2.27152 12.685C1.90957 12.3001 1.90957 11.6999 2.27152 11.315L6.97276 6.31499C7.35107 5.91263 7.98394 5.89314 8.3863 6.27146C8.78866 6.64978 8.80815 7.28264 8.42983 7.685L5.31292 11L16.5001 11C17.0523 11 17.5001 11.4477 17.5001 12C17.5001 12.5523 17.0523 13 16.5001 13L5.31292 13L8.42983 16.315C8.80815 16.7174 8.78866 17.3502 8.3863 17.7285Z" fill="white"/>
<path fill-rule="evenodd" clip-rule="evenodd" d="M13 21C13 20.4477 13.4477 20 14 20L17 20C17.9711 20 18.5988 19.9979 19.0613 19.9357C19.495 19.8774 19.631 19.7832 19.7071 19.7071C19.7832 19.631 19.8774 19.495 19.9357 19.0613C19.9979 18.5988 20 17.9711 20 17L20 6.99999C20 6.02892 19.9979 5.4012 19.9357 4.9387C19.8774 4.50496 19.7832 4.36901 19.7071 4.29289C19.631 4.21676 19.495 4.12261 19.0613 4.0643C18.5988 4.00212 17.9711 3.99999 17 3.99999L14 3.99999C13.4477 3.99999 13 3.55228 13 2.99999C13 2.44771 13.4477 1.99999 14 1.99999L17.0659 1.99999C17.9523 1.99994 18.7161 1.9999 19.3278 2.08213C19.9833 2.17027 20.6117 2.36901 21.1213 2.87867C21.631 3.38834 21.8297 4.01669 21.9179 4.6722C22.0001 5.28386 22.0001 6.04768 22 6.93416L22 17.0658C22.0001 17.9523 22.0001 18.7161 21.9179 19.3278C21.8297 19.9833 21.631 20.6117 21.1213 21.1213C20.6117 21.631 19.9833 21.8297 19.3278 21.9179C18.7161 22.0001 17.9523 22 17.0658 22C17.044 22 17.022 22 17 22L14 22C13.4477 22 13 21.5523 13 21Z" fill="white"/>
</g>
</g>
<defs>
<clipPath id="clip0_878_23389">
<rect width="24" height="24" fill="white"/>
</clipPath>
<clipPath id="clip1_878_23389">
<rect width="24" height="24" fill="white" transform="translate(0 24) rotate(-90)"/>
</clipPath>
</defs>
</svg>

<svg width="24" height="24" fill="none" xmlns="http://www.w3.org/2000/svg"><g clip-path="url(#clip0_878_23389)"><g clip-path="url(#clip1_878_23389)" fill-rule="evenodd" clip-rule="evenodd" fill="#fff"><path d="M8.386 17.729a1 1 0 0 1-1.413-.044l-4.701-5a1 1 0 0 1 0-1.37l4.7-5a1 1 0 1 1 1.458 1.37L5.313 11H16.5a1 1 0 0 1 0 2H5.313l3.117 3.315a1 1 0 0 1-.044 1.413z"/><path d="M13 21a1 1 0 0 1 1-1h3c.971 0 1.599-.002 2.061-.064.434-.059.57-.153.646-.229.076-.076.17-.212.229-.646.062-.462.064-1.09.064-2.061V7c0-.971-.002-1.599-.064-2.061-.059-.434-.153-.57-.229-.646-.076-.076-.212-.17-.646-.229C18.6 4.002 17.971 4 17 4h-3a1 1 0 1 1 0-2h3.066c.886 0 1.65 0 2.262.082.655.088 1.284.287 1.793.797.51.51.709 1.138.797 1.793C22 5.284 22 6.048 22 6.934v10.132c0 .886 0 1.65-.082 2.262-.088.655-.287 1.284-.797 1.793-.51.51-1.138.709-1.793.797-.612.082-1.376.082-2.262.082H14a1 1 0 0 1-1-1z"/></g></g><defs><clipPath id="clip0_878_23389"><path fill="#fff" d="M0 0H24V24H0z"/></clipPath><clipPath id="clip1_878_23389"><path fill="#fff" transform="rotate(-90 12 12)" d="M0 0H24V24H0z"/></clipPath></defs></svg>
